X: 23
T: Tartan Plaiddie, The
M: 6/8
L: 1/8
G: Pleasures of Salisbury
K: A
|:e|e>dc c2c|c>BA A2A|Bcd fed|c3 B2e|e>dc c2c|
c>BA A2A|aec dBG|1 A3A2:|2 A3A2z||:ece aec|dBd bgd|
cea dfb|c3 B2e|e>dc c2c|c>BA A2A|cea dBG|1 A3 A2:|2 A3 A2||
%%newpage
%%textfont * 14
%%begintext justify
%%32 Bar Jigs
%%endtext
